assets/features/channel/southeast-asia/grab.svg

<svg width="80" height="80" viewBox="0 0 80 80" fill="none" xmlns="http://www.w3.org/2000/svg">
<rect width="80" height="80" rx="8" fill="#00B45E"/>
<path d="M56.5821 36.0032V29.2002H57.9765V35.0482C57.5904 35.2413 57.0648 35.6062 56.5821 36.0032ZM54.1581 38.0527C54.5871 37.5376 55.0269 37.0225 55.5525 36.5826V29.2002H54.1581V38.0527ZM38.0049 43.4607C38.0049 45.2741 38.7235 47.0017 40.0428 48.3215C41.3514 49.6306 43.0782 50.3603 44.9016 50.3603C45.6739 50.3603 46.4676 50.1993 47.0254 49.9203V48.5254C46.3711 48.8044 45.5774 48.9653 44.9016 48.9653C41.9198 48.9653 39.41 46.4544 39.41 43.4714V42.216C39.41 39.233 41.9306 36.7221 44.9016 36.7221C46.3818 36.7221 47.7655 37.2908 48.7951 38.3209C49.8248 39.351 50.3933 40.7352 50.3933 42.216V50.371H51.7877V41.9477C51.7019 40.1665 50.9403 38.5033 49.6532 37.2586C48.3554 36.0139 46.6714 35.3272 44.9016 35.3272C43.089 35.3272 41.3621 36.0461 40.0428 37.3659C38.7343 38.675 38.0049 40.4026 38.0049 42.2267V43.4607ZM58.8775 40.1129C59.5103 39.4798 60.3255 39.1257 61.1299 39.1257C62.8568 39.1257 64.1975 40.4777 64.1975 42.1945V43.45C64.1975 45.1775 62.8461 46.5188 61.1299 46.5188C60.2933 46.5188 59.4889 46.0574 58.856 45.2312C58.2983 44.5015 57.9336 43.5036 57.88 42.613L56.7538 44.0079C56.979 45.0595 57.526 46.0789 58.309 46.7871C59.1135 47.5167 60.1217 47.9245 61.1299 47.9245C63.5969 47.9245 65.6026 45.9179 65.6026 43.4607V42.2053C65.6026 41.0357 65.1307 39.9197 64.2726 39.072C63.4145 38.2136 62.299 37.7415 61.1299 37.7415C60.3898 37.7415 59.2207 38.0097 57.8263 39.2652C57.4509 39.6407 56.5714 40.5206 56.0351 41.143C55.1341 42.1301 53.8363 43.6002 52.7208 45.0917V47.2699C53.9543 45.6819 54.6622 44.7913 55.8313 43.45C56.861 42.2267 58.1481 40.7567 58.8775 40.1129ZM25.9275 37.4839V35.8315C24.6619 35.1555 23.289 34.855 21.4656 34.855C19.5993 34.855 17.8295 35.5418 16.4887 36.7758C15.1373 38.0205 14.3972 39.6515 14.3972 41.3898V41.8404C14.3972 45.4458 17.2825 48.3752 20.8435 48.3752C23.7287 48.3752 24.9193 47.4309 25.2196 47.1304V42.9349H20.5002V44.3299H23.9111V46.433H23.9003C23.4606 46.6047 22.5489 46.9695 20.8435 46.9695C19.492 46.9695 18.2156 46.4437 17.2717 45.478C16.3171 44.5123 15.8023 43.2246 15.8023 41.8297V41.379C15.8023 38.5999 18.398 36.2392 21.4763 36.2392C23.5893 36.25 24.8549 36.6041 25.9275 37.4839ZM36.0957 39.1257C36.6213 39.1257 37.0717 39.2115 37.4364 39.3832C37.608 38.954 37.7904 38.5892 38.0478 38.16C37.6724 37.8917 36.7607 37.72 36.0957 37.72C33.5536 37.72 31.6337 39.6407 31.6337 42.1945V50.3495H33.0281V42.1945C33.0281 40.3918 34.283 39.1257 36.0957 39.1257ZM11.9731 41.3898V41.8404C11.9731 44.2655 12.8956 46.5188 14.5581 48.2035C16.2206 49.8774 18.4516 50.8002 20.8327 50.8002C22.7527 50.8002 24.4474 50.371 25.8846 49.5126C27.0645 48.8044 27.59 48.0962 27.633 48.0318V40.5206H20.5002V41.9155H26.2386V47.6133C25.5629 48.2893 23.9647 49.416 20.8435 49.416C18.8055 49.416 16.9178 48.6327 15.5234 47.2163C14.1398 45.8106 13.3782 43.9006 13.3782 41.8512V41.4005C13.3782 39.4583 14.247 37.5269 15.7701 36.0997C17.3254 34.6404 19.3526 33.8357 21.4763 33.8357C23.4606 33.8357 24.8335 34.1361 25.9383 34.8121V33.2348C24.7799 32.7412 23.3962 32.5266 21.4656 32.5266C16.3171 32.5266 11.9731 36.5826 11.9731 41.3898ZM49.3529 50.3495V42.1945C49.3529 39.6837 47.39 37.72 44.8802 37.72C43.7111 37.72 42.5956 38.1921 41.7375 39.0506C40.8794 39.909 40.4075 41.0249 40.4075 42.1838V43.4392C40.4075 45.8643 42.4561 47.903 44.8695 47.903C45.5345 47.903 46.4354 47.7421 46.9932 47.2807V45.8321C46.4462 46.272 45.6632 46.5296 44.8695 46.5296C43.1533 46.5296 41.8019 45.1775 41.8019 43.4607V42.2053C41.8019 40.4777 43.1533 39.1364 44.8695 39.1364C46.5963 39.1364 47.9371 40.4884 47.9371 42.2053V50.3603H49.3529V50.3495ZM36.0957 36.7006C37.0396 36.7006 37.8655 36.9045 38.6055 37.323C38.9488 36.8831 39.3027 36.5397 39.5709 36.2714C38.7879 35.6705 37.4579 35.3057 36.1064 35.3057C34.165 35.3057 32.406 36.0032 31.151 37.2801C29.9068 38.5355 29.2204 40.2845 29.2204 42.2053V50.3603H30.6148V42.2053C30.604 38.9647 32.8565 36.7006 36.0957 36.7006ZM65.9888 37.3445C64.6802 36.0354 62.9533 35.3057 61.1299 35.3057C59.7999 35.3057 58.4699 35.7993 57.7298 36.2929C56.2067 37.3015 54.9625 38.4068 52.7101 41.3147V43.407C54.6193 40.9176 56.4213 38.9647 57.7942 37.881C58.6951 37.162 59.9715 36.7114 61.1299 36.7114C64.1117 36.7114 66.6216 39.233 66.6216 42.2053V43.4607C66.6216 44.9307 66.0424 46.3149 64.9912 47.3558C63.9508 48.3859 62.5779 48.9546 61.1299 48.9546C58.6844 48.9546 56.5285 47.2699 55.9493 44.9844L54.9625 46.1755C55.6812 48.579 58.2768 50.3495 61.1299 50.3495C62.9533 50.3495 64.6695 49.6199 65.9888 48.3108C67.2973 46.991 68.0267 45.2741 68.0267 43.45V42.1945C68.0267 40.3811 67.2973 38.6535 65.9888 37.3445Z" fill="white"/>
</svg>

<svg xmlns="http://www.w3.org/2000/svg" width="80" height="80" fill="none" viewBox="0 0 80 80"><rect width="80" height="80" fill="#00b45e" rx="8"/><path fill="#fff" d="M56.582 36.003V29.2h1.395v5.848c-.387.193-.912.558-1.395.955m-2.424 2.05c.43-.515.869-1.03 1.395-1.47V29.2h-1.395zM38.005 43.46c0 1.813.718 3.54 2.038 4.86 1.308 1.31 3.035 2.04 4.859 2.04.772 0 1.566-.162 2.123-.44v-1.396a5.7 5.7 0 0 1-2.123.44c-2.982 0-5.492-2.51-5.492-5.494v-1.255c0-2.983 2.52-5.494 5.492-5.494 1.48 0 2.864.569 3.893 1.599a5.47 5.47 0 0 1 1.598 3.895v8.155h1.395v-8.423a6.97 6.97 0 0 0-2.135-4.69 6.84 6.84 0 0 0-4.751-1.93c-1.813 0-3.54.718-4.86 2.038-1.308 1.309-2.037 3.037-2.037 4.86zm20.872-3.348c.633-.633 1.448-.987 2.253-.987a3.034 3.034 0 0 1 3.068 3.069v1.255a3.034 3.034 0 0 1-3.068 3.069c-.837 0-1.641-.462-2.274-1.288a5 5 0 0 1-.976-2.618l-1.126 1.395c.225 1.051.772 2.07 1.555 2.78.805.729 1.813 1.137 2.82 1.137a4.476 4.476 0 0 0 4.474-4.464v-1.256a4.4 4.4 0 0 0-1.33-3.133c-.858-.858-1.974-1.33-3.143-1.33-.74 0-1.91.268-3.304 1.523-.375.376-1.255 1.256-1.79 1.878-.902.987-2.2 2.457-3.315 3.949v2.178c1.233-1.588 1.941-2.479 3.11-3.82 1.03-1.223 2.317-2.693 3.046-3.337m-32.95-2.63v-1.651c-1.265-.676-2.638-.977-4.461-.977a7.33 7.33 0 0 0-4.977 1.92c-1.352 1.245-2.092 2.877-2.092 4.615v.45c0 3.606 2.885 6.535 6.446 6.535 2.886 0 4.076-.944 4.377-1.245v-4.195H20.5v1.395h3.411v2.103h-.01c-.44.172-1.352.536-3.058.536a4.96 4.96 0 0 1-3.571-1.491c-.955-.966-1.47-2.253-1.47-3.648v-.451c0-2.78 2.596-5.14 5.674-5.14 2.113.011 3.379.365 4.451 1.245m10.169 1.643c.525 0 .976.086 1.34.257.172-.429.354-.794.612-1.223-.376-.268-1.287-.44-1.952-.44-2.542 0-4.462 1.92-4.462 4.474v8.155h1.394v-8.154c0-1.803 1.255-3.07 3.068-3.07M11.973 41.39v.45c0 2.425.923 4.679 2.585 6.363a8.78 8.78 0 0 0 6.275 2.597c1.92 0 3.614-.429 5.052-1.287 1.18-.709 1.705-1.417 1.748-1.481V40.52H20.5v1.395h5.739v5.697c-.676.676-2.274 1.803-5.396 1.803-2.038 0-3.925-.783-5.32-2.2-1.383-1.405-2.145-3.315-2.145-5.365v-.45c0-1.943.869-3.874 2.392-5.301a8.32 8.32 0 0 1 5.706-2.264c1.985 0 3.358.3 4.462.976v-1.577c-1.158-.494-2.542-.708-4.472-.708-5.149 0-9.493 4.056-9.493 8.863m37.38 8.96v-8.156c0-2.51-1.963-4.474-4.473-4.474-1.169 0-2.284.472-3.143 1.33-.858.859-1.33 1.975-1.33 3.134v1.255c0 2.425 2.05 4.464 4.463 4.464.665 0 1.565-.16 2.123-.622v-1.449c-.547.44-1.33.698-2.123.698a3.04 3.04 0 0 1-3.068-3.07v-1.255a3.034 3.034 0 0 1 3.068-3.069 3.034 3.034 0 0 1 3.067 3.07v8.154h1.416zM36.096 36.7c.944 0 1.77.204 2.51.623.343-.44.697-.783.965-1.052-.783-.6-2.113-.965-3.465-.965-1.941 0-3.7.697-4.955 1.974-1.244 1.255-1.93 3.005-1.93 4.925v8.155h1.394v-8.155c-.011-3.24 2.241-5.504 5.48-5.504m29.893.644c-1.309-1.309-3.036-2.038-4.86-2.038-1.33 0-2.66.493-3.4.987-1.522 1.008-2.767 2.114-5.019 5.022v2.092c1.91-2.49 3.711-4.442 5.084-5.526.901-.719 2.178-1.17 3.336-1.17 2.982 0 5.492 2.522 5.492 5.494v1.256c0 1.47-.58 2.854-1.63 3.895a5.46 5.46 0 0 1-3.862 1.599c-2.446 0-4.602-1.685-5.18-3.97l-.988 1.19c.72 2.404 3.315 4.175 6.168 4.175 1.823 0 3.54-.73 4.859-2.04 1.308-1.319 2.038-3.036 2.038-4.86v-1.256c0-1.813-.73-3.54-2.038-4.85"/></svg>
